packages/calcite-ui-icons/icons/raster-function-template-history-24.svg

<?xml version="1.0" encoding="UTF-8"?><svg id="icons" xmlns="http://www.w3.org/2000/svg" viewBox="0 0 24 24"><defs><style>.cls-1{fill:none;}.cls-1,.cls-2{stroke-width:0px;}</style></defs><path class="cls-2" d="M9,10h4v1h-4v-1ZM8,8h-4v-4h4v4ZM7,5h-2v2h2v-2ZM8,13h-4v-4h4v4ZM7,10h-2v2h2v-2ZM4,14h4v4h-4v-4ZM5,17h2v-2h-2v2ZM13,5c0-2.75702,2.24298-5,5-5s5,2.24298,5,5-2.24298,5-5,5-5-2.24298-5-5ZM14,5c0,2.20532,1.79462,4,4,4s4-1.79468,4-4-1.79462-4-4-4-4,1.79462-4,4ZM20,5h-2v-3h-1v4h3v-1ZM9,5v1h2.83771c-.05286-.32648-.08771-.65887-.08771-1h-2.75ZM13.83301,16l.24377-1.62122c.18909-1.28302.36255-2.21625,1.64557-2.21625.28589,0,.55432.06293.80823.15887l.33148-1.10864c-.21918-.12598-.60089-.18994-.91779-.18994-1.99347,0-2.80255,1.2821-3.05365,3.08655l-.29315,1.89062h-1.6145l-.14337.93512h1.61359l-.78174,6.06488h1.23553l.78174-6.06488h1.80444l.14337-.93512h-1.80353ZM23.51923,16h-1.51776l-1.83331,2.20575-1.32202-2.20575h-1.63184l1.91461,2.9729-3.62891,4.0271h1.54962l2.78156-3.229,1.91864,3.229h1.64636l-2.52667-4.0271,2.64972-2.9729ZM2,19.2113V2.78943c0-.43597.35345-.78943.78949-.78943h9.7301c.19556-.35583.42499-.69043.68359-1H2.58508c-.87543,0-1.58508.70966-1.58508,1.58508v16.83752c0,.87115.70624,1.57739,1.57739,1.57739h8.38446l.12891-1H2.7887c-.43561,0-.7887-.35315-.7887-.7887Z"/><rect class="cls-1" width="24" height="24"/></svg>

<svg xmlns="http://www.w3.org/2000/svg" viewBox="0 0 24 24"><path d="M9 10h4v1H9v-1zM8 8H4V4h4v4zM7 5H5v2h2V5zm1 8H4V9h4v4zm-1-3H5v2h2v-2zm-3 4h4v4H4v-4zm1 3h2v-2H5v2zm8-12c0-2.757 2.243-5 5-5s5 2.243 5 5-2.243 5-5 5-5-2.243-5-5zm1 0c0 2.205 1.795 4 4 4s4-1.795 4-4-1.795-4-4-4-4 1.795-4 4zm6 0h-2V2h-1v4h3V5zM9 5v1h2.838a6.237 6.237 0 0 1-.088-1H9zm4.833 11l.244-1.621c.189-1.283.362-2.216 1.645-2.216.286 0 .555.062.809.158l.331-1.108c-.22-.126-.6-.19-.918-.19-1.993 0-2.802 1.282-3.053 3.086L12.597 16h-1.614l-.143.935h1.613L11.671 23h1.236l.782-6.065h1.804l.144-.935h-1.804zm9.686 0h-1.518l-1.833 2.206L18.846 16h-1.632l1.915 2.973L15.5 23h1.55l2.781-3.229L21.75 23h1.646l-2.526-4.027L23.52 16zM2 19.211V2.79A.79.79 0 0 1 2.79 2h9.73c.195-.356.425-.69.683-1H2.585C1.71 1 1 1.71 1 2.585v16.838C1 20.293 1.706 21 2.577 21h8.385l.129-1H2.789A.789.789 0 0 1 2 19.211z" stroke-width="0"/><path stroke-width="0" fill="none" d="M0 0h24v24H0z"/></svg>
